polaris-icons/icons/SortAscendingMajor.svg

<svg viewBox="0 0 20 20" xmlns="http://www.w3.org/2000/svg"><path fill-rule="evenodd" d="M9.11612 4.32315C9.60427 3.83499 10.3957 3.83499 10.8839 4.32315L13.5303 6.96959C13.8232 7.26249 13.8232 7.73736 13.5303 8.03025C13.2374 8.32315 12.7626 8.32315 12.4697 8.03025L10 5.56058L7.53033 8.03025C7.23744 8.32315 6.76256 8.32315 6.46967 8.03025C6.17678 7.73736 6.17678 7.26249 6.46967 6.96959L9.11612 4.32315Z" fill="#5C5F62"/><path fill-opacity="0.33" fill-rule="evenodd" d="M9.11612 15.6769C9.60427 16.165 10.3957 16.165 10.8839 15.6769L13.5303 13.0304C13.8232 12.7375 13.8232 12.2626 13.5303 11.9697C13.2374 11.6769 12.7626 11.6769 12.4697 11.9697L10 14.4394L7.53033 11.9697C7.23744 11.6769 6.76256 11.6769 6.46967 11.9697C6.17678 12.2626 6.17678 12.7375 6.46967 13.0304L9.11612 15.6769Z" fill="#5C5F62"/></svg>

<svg viewBox="0 0 20 20" xmlns="http://www.w3.org/2000/svg"><path fill-rule="evenodd" d="M9.116 4.323a1.25 1.25 0 0 1 1.768 0l2.646 2.647a.75.75 0 0 1-1.06 1.06l-2.47-2.47-2.47 2.47a.75.75 0 1 1-1.06-1.06l2.646-2.647Z" fill="#5C5F62"/><path fill-opacity=".33" fill-rule="evenodd" d="M9.116 15.677a1.25 1.25 0 0 0 1.768 0l2.646-2.647a.75.75 0 0 0-1.06-1.06l-2.47 2.47-2.47-2.47a.75.75 0 0 0-1.06 1.06l2.646 2.647Z" fill="#5C5F62"/></svg>
